X:1
T:Tender Thought, LM
T:Tender Thought, LM
T:Ananias Davisson, 1816
T:Public Domain Courtesy of the Cyber Hymnal™
C:Ananias Davisson, 1816
Z:Public Domain
Z:Courtesy of the Cyber Hymnal™
%%score ( 1 2 ) ( 3 4 )
L:1/8
Q:1/4=115
M:4/4
K:C
V:1 treble 
V:2 treble 
V:3 bass 
V:4 bass 
V:1
 (A3 B) | (AG) E2 G3 A | [EB]4 [Dd]2 [EB]2 | [EA]4 ([EA]3 [DB]) | (AG) E2 (G3 A) | %5
 [EB]4 [Ec]2 [Dd]2 | !fermata![Ce]4 [Ce]4 | [B,g]2 [Ce]2 [B,d]4 | [Ce]4 [B,d]2 [Ce]2 | %9
 [B,G]4 (A3 B) | (AG) E2 [DA]3 [CA] | [B,B]4 [B,d]2 [EB]2 | !fermata![EA]4 |] %13
V:2
 E4 | E2 E2 C4 | x8 | x8 | C2 E2 E4 | x8 | x8 | x8 | x8 | x4 E4 | E2 E2 x4 | x8 | x4 |] %13
V:3
 (A,3 G,) | (CD) E2 [G,E]4 | (G2 E2) (DC) [E,B,]2 | [A,,A,]4 (A,3 G,) | (CD) [E,E]2 [G,E]4 | %5
 (D2 E2) [A,C]2 B,2 | !fermata![E,A,]4 [A,C]4 | [^G,D]2 [A,E]2 [G,D]4 | %8
 [E,C]4 [A,D]2 ([G,C][F,A,]) | [E,B,]4 [C,E]4 | (ED) [E,C]2 [G,B,]4 | (G,2 E,2) [D,G,]2 [E,^G,]2 | %12
 !fermata![A,,A,]4 |] %13
V:4
 A,4 | A,2 (B,A,) x4 | E,4 D,2 x2 | x4 C,4 | F,2 x6 | E,4 (A,G,) x2 | x8 | x8 | x8 | x8 | C,2 x6 | %11
 E,4 x4 | x4 |] %13

